X:1
T:All for Jesus
T:Asa Hull
T:All for Jesus
T:Public Domain
T:Public Domain
C:Asa Hull
Z:Public Domain
%%score ( 1 2 ) 3
L:1/8
M:4/4
K:F
V:1 treble 
V:2 treble 
V:3 bass 
V:1
 [FA]3 [FA] [FA][FA][FG][FA] | [Fc]4 [FA]4 | [EG]3 [EG] [Ec][Ec][EB][EG] | [FA]8 | %4
w: 1.~All for Je- sus, all for|Je- sus!|All my be- ing’s ran- somed|powers:|
w: 2.~Let my hands per- form His|bid- ding,|Let my feet run in His|ways;|
w: 3.~World- lings prize their gems of|beau- ty,|Cling to gild- ed toys of|dust,|
w: 4.~Since my eyes were fixed on|Je- sus,|I’ve lost sight of all be-|side;|
w: 5.~Oh, what won- der! how a-|maz- ing!|Je- sus, glor- ious King of|kings,|
 [FA]3 [FA] [FA][FA][FG][FA] | [Fc]4 [FA]4 | [EG]3 [EG] [Ec][Ec][EB][EG] | F8 |: %8
w: All my thoughts and words and|do- ings,|All my days and all my|hours.|
w: Let my eyes see Je- sus|on- ly,|Let my lips speak forth His|praise.|
w: Boast of wealth and fame and|plea- sure;|On- ly Je- sus will I|trust.|
w: So en- chained my spir- it’s|vi- sion,|Look- ing at the Cru- ci-|fied.|
w: Deigns to call me His be-|lov- èd,|Lets me rest be- neath His|wings.|
"^Refrain" [Fd]3 [Fd] [FB][FB][Fd][Fd] | [Fc]4 [FA]4 | [EG]3 [EG] [Ec][Ec][EB][EG] | [FA]8 :| F8 |] %13
w: |||||
w: |||||
w: for Je- sus! All for Je-|sus! All|my days and all my hours;|hours.||
w: |||||
w: |||||
V:2
 x8 | x8 | x8 | x8 | x8 | x8 | x8 | F8 |: x8 | x8 | x8 | x8 :| F8 |] %13
w: |||||||||||||
w: |||||||||||||
w: |||||||All||||||
V:3
 [F,C]3 [F,C] [F,C][F,C][F,B,][F,C] | [F,A,]4 [F,C]4 | [C,C]3 [C,C] [C,G,][C,G,][C,G,][C,C] | %3
 [F,C]8 | [F,C]3 [F,C] [F,C][F,C][F,B,][F,C] | [F,A,]4 [F,C]4 | %6
 [C,C]3 [C,C] [C,G,][C,G,][C,G,][C,B,] | [F,A,]8 |: [B,,B,]3 [B,,B,] [D,B,][D,B,][B,,B,][B,,B,] | %9
 [F,A,]4 [F,C]4 | [C,C]3 [C,C] [C,G,][C,G,][C,G,][C,C] | [F,C]8 :| [F,A,]8 |] %13

